static/images/mobile/copyright/wikipedia-wordmark-ady.svg

<?xml version="1.0" encoding="UTF-8"?>
<svg width="120px" height="20px" viewBox="0 0 120 20" version="1.1" xmlns="http://www.w3.org/2000/svg" xmlns:xlink="http://www.w3.org/1999/xlink">
    <title>ady-wordmark</title>
    <g id="Page-1" stroke="none" stroke-width="1" fill="none" fill-rule="evenodd">
        <path d="M115.383602,0.987474262 C117.234921,0.987474262 117.679322,2.24645983 118.222445,3.94984663 L118.938287,3.82636823 C118.741065,2.8144403 118.518642,1.30839709 118.420132,-1.77635684e-15 L112.100095,-1.77635684e-15 L110.174659,0.025411643 L107.014439,-1.77635684e-15 L106.963414,0.025411643 L106.963414,0.519224404 C106.963414,0.592030778 106.988825,0.692164752 107.16108,0.692164752 L107.901497,0.692164752 C108.839741,0.692164752 109.185188,1.0377631 109.185188,1.80291573 L109.185188,14.1709237 C109.185188,14.8624028 108.889142,15.2573723 107.901497,15.2573723 L107.16108,15.2573723 C107.012734,15.2573723 106.963414,15.3561954 106.963414,15.4300101 L106.963414,15.9237422 L107.014439,15.9747672 L110.174659,15.9237422 L112.075288,15.9489522 L119.33364,15.9489522 C119.456877,14.5664378 119.703813,13.1594193 120,11.875728 L119.234817,11.7522193 C118.741035,13.5297234 118.025142,14.9861534 116.148815,14.9861534 L112.050482,14.9861534 C111.50759,14.9861534 111.16181,14.8382012 111.16181,14.1714279 L111.16181,7.87629841 L114.544181,7.87629841 C115.383491,7.87629841 115.654932,8.24648151 115.778561,8.96234363 L115.926383,9.7278492 C115.926383,9.80065558 115.999189,9.90048703 116.124079,9.90048703 L116.691959,9.90048703 L116.764765,9.82757982 C116.691959,9.40788435 116.567048,8.29713337 116.567048,7.45774243 C116.567048,6.64307742 116.665972,5.72964987 116.764765,5.11230829 C116.764765,5.06168668 116.739051,5.01368691 116.665942,5.01368691 L116.122677,5.01368691 C116.023854,5.01368691 115.949757,5.11230829 115.949757,5.21109101 L115.77721,5.95167905 C115.628865,6.64308751 115.406835,7.03812763 114.54283,7.03812763 L111.160762,7.03812763 L111.160762,1.77963181 C111.160762,1.18710692 111.456938,0.989743158 112.049332,0.989743158 L115.38219,0.989743158 L115.383602,0.987474262 Z M96.2411726,4.61670058 L93.5500595,4.5438942 L93.4772531,4.59421329 L93.4772531,5.13722581 C93.4772531,5.21013303 93.5282781,5.23594803 93.6255381,5.23594803 L94.365985,5.23594803 C95.254737,5.23594803 95.3536508,5.50745933 95.3536508,6.56915173 L95.3536508,14.0986619 C95.3536508,14.9627182 95.2809453,15.2343203 94.365985,15.2590261 L93.6008122,15.2590261 C93.5280058,15.2590261 93.4772531,15.3098494 93.4772531,15.3823734 L93.4772531,15.9254061 L93.5026647,15.976431 C93.5026647,15.976431 95.1814466,15.9254061 96.2430886,15.9254061 C97.0083219,15.9254061 98.2425412,15.976431 98.2425412,15.976431 L98.2682554,15.9254061 L98.2682554,15.4070287 C98.2682554,15.3084073 98.2172304,15.2590261 98.1201115,15.2590261 C97.2807004,15.2590261 97.2067848,15.0613497 97.2067848,14.444351 L97.2067848,14.393326 L102.292441,7.50556069 L102.292441,14.047647 C102.292441,14.9117134 102.193618,15.2326161 101.28011,15.2573219 L100.514927,15.2573219 C100.44202,15.2573219 100.391328,15.3083468 100.391328,15.3808003 L100.391328,15.9236918 L100.391328,15.9747168 C100.391328,15.9747168 102.070009,15.9236918 103.156457,15.9236918 C104.267208,15.9236918 105.995301,15.9747168 105.995301,15.9747168 L106.021015,15.9236918 L106.021015,15.4055262 C106.021015,15.3067032 105.96999,15.2573219 105.872861,15.2573219 L105.132243,15.2573219 C104.268176,15.2316077 104.120113,14.9611351 104.120113,14.047647 L104.120113,6.51783433 C104.120113,5.50570472 104.218835,5.23404216 105.132243,5.23404216 L105.872861,5.23404216 C105.971482,5.23404216 106.021015,5.18301719 106.021015,5.11059401 L106.021015,4.59242842 L105.995301,4.54130262 C105.995301,4.54130262 104.267208,4.59242842 103.156457,4.59242842 C102.440353,4.59242842 101.354247,4.54130262 101.354247,4.54130262 L101.303222,4.59242842 L101.303222,5.13531994 C101.303222,5.20822715 101.354247,5.23404216 101.426751,5.23404216 C102.266172,5.23404216 102.290828,5.72793559 102.290828,6.32049073 L97.205373,13.2329618 L97.205373,6.54243925 C97.205373,5.50560388 97.3037927,5.23394132 98.217301,5.23394132 L98.9580504,5.23394132 C99.0566717,5.23394132 99.1059925,5.18291635 99.1059925,5.11049317 L99.1059925,4.59232758 L99.0550684,4.54130262 L96.2409306,4.61410899 L96.2411726,4.61670058 Z M83.0755113,14.6888876 C83.0755113,14.2691619 83.6927218,11.8006326 84.0383403,6.17185279 C84.0383403,6.07292889 84.1617683,5.52976511 84.7542529,5.52976511 L87.2723248,5.52976511 C88.1857221,5.52976511 88.2598092,5.87566597 88.2598092,6.7149359 L88.2598092,13.7753391 C88.2598092,14.5899637 88.1859036,14.9853165 87.2723248,14.9853165 L83.544578,14.9853165 C83.2977119,14.9853165 83.0755113,14.9596023 83.0755113,14.6888271 L83.0755113,14.6888876 Z M83.4951967,15.9478732 L88.1610567,15.9478732 C90.6544229,15.9478732 91.2222521,17.6759658 91.4693098,19.1079824 L92.0862984,19.1079824 L91.9381243,15.7751345 C91.9381243,15.4539697 91.592647,15.2814629 91.419868,15.2814629 L91.0001927,15.2814629 C90.2347577,15.2557488 90.1114104,14.9605603 90.1114104,14.0717881 L90.1114104,6.41854741 C90.1114104,5.57921697 90.3335606,5.23367913 91.246968,5.23367913 L91.6419173,5.23367913 C91.7408211,5.23367913 91.8395231,5.13495692 91.8395231,5.06112198 L91.8395231,4.54264379 C91.1482357,4.54264379 90.0127083,4.615551 89.1980232,4.615551 C88.2104985,4.615551 87.0749409,4.56452604 86.0132989,4.56452604 C85.0751959,4.56452604 83.9889389,4.615551 83.495227,4.615551 C83.1002675,4.615551 81.9399739,4.54264379 81.100583,4.54264379 L81.100583,5.11014023 C81.100583,5.1829466 81.1500449,5.23367913 81.2487066,5.23367913 L81.9152581,5.23367913 C82.804,5.23367913 82.9274885,5.85096021 82.9274885,6.17188304 C82.9274885,9.10954964 82.5077829,12.1214344 82.0387264,14.2198109 C81.8659171,14.8865539 81.4462519,15.2815537 80.77964,15.2815537 L80.3846805,15.2815537 C80.1871554,15.2815537 79.964975,15.4540604 79.964975,15.7752253 L79.8168614,19.1079824 L80.4340215,19.1079824 C80.5327739,18.1697987 80.9771651,15.9479639 83.4952169,15.9479639 L83.4951967,15.9478732 Z M78.1901129,4.5428858 L73.2526911,4.5428858 L71.4751871,4.59391077 L69.0064258,4.5428858 L68.9816898,4.59391077 L68.9816898,5.13680229 C68.9816898,5.16241561 68.9816898,5.23562534 69.1298033,5.23562534 L69.6976023,5.23562534 C70.4135652,5.23562534 70.6850967,5.48263256 70.6850967,6.05030043 L70.6850967,14.4688147 C70.6850967,14.9625872 70.4629062,15.2588042 69.6976023,15.2588042 L69.1298033,15.2588042 C69.0063653,15.2588042 68.9816898,15.3317114 68.9816898,15.3823532 L68.9816898,15.9252346 L69.0064258,15.9762596 L71.4504813,15.9252346 L73.2526911,15.9503438 L78.2148186,15.9503438 C78.2642806,15.1603644 78.436989,14.1481339 78.7332464,12.938459 L78.1160662,12.8656527 C77.7210563,14.1247391 77.1532573,15.2604983 75.6720106,15.2604983 L73.2279551,15.2604983 C72.8082798,15.2604983 72.536708,15.1617761 72.536708,14.6925784 L72.536708,10.2734735 L74.684496,10.2734735 C75.3263821,10.2734735 75.5485524,10.5452671 75.6472948,11.0389186 L75.7707329,11.5819311 C75.7707329,11.6547375 75.820215,11.7301858 75.9188767,11.7301858 L76.3632578,11.7301858 L76.4127197,11.6573795 C76.3632578,11.0895301 76.2646162,10.5711326 76.2646162,9.95399266 C76.2646162,9.36145768 76.3633788,8.69490625 76.4127197,8.1269762 C76.4127197,8.07615291 76.4127197,8.05416982 76.3632578,8.05416982 L75.9188767,8.05416982 C75.8446989,8.05416982 75.7954285,8.10499311 75.7954285,8.20233382 L75.6472948,8.72081201 C75.5238668,9.21464494 75.3757331,9.48607557 74.684496,9.48607557 L72.536708,9.48607557 L72.536708,5.83234517 C72.536708,5.41266987 72.7588885,5.23983036 73.2279551,5.23983036 L75.6473049,5.23983036 C77.2025579,5.23983036 77.6716649,6.6963612 77.9432267,7.58516367 L78.560417,7.51225645 C78.3876077,6.57405254 78.2147985,5.63582847 78.1900826,4.54958157 L78.1901129,4.5428858 Z M56.82719,6.46832196 L56.82719,14.1215626 C56.82719,14.9856291 56.7530324,15.2571202 55.8397056,15.2571202 L55.0743816,15.2571202 C55.0002038,15.2571202 54.9509435,15.3081452 54.9509435,15.3805986 L54.9509435,15.92348 L54.9756795,15.974505 L57.7159017,15.92348 L60.4315189,15.974505 L60.480991,15.92348 L60.480991,15.4053245 C60.480991,15.3065015 60.4315189,15.2571202 60.3328471,15.2571202 L59.6909914,15.2571202 C58.8022595,15.2571202 58.6788618,15.0594237 58.6788618,14.1215626 L58.6788618,6.49302772 C58.6788618,5.62901169 59.1972896,5.53006763 59.6909914,5.53006763 L62.7028761,5.53006763 C63.1966284,5.53006763 63.6903806,5.602874 63.6903806,6.49302772 L63.6903806,14.1215626 C63.6903806,14.9856291 63.616223,15.2571202 62.7028761,15.2571202 L62.0363348,15.2571202 C61.9375621,15.2571202 61.888191,15.3081452 61.888191,15.3805986 L61.888191,15.92348 L61.9376529,15.974505 L64.5545479,15.92348 L67.3935932,15.974505 L67.4430551,15.92348 L67.4430551,15.4053245 C67.4430551,15.3065015 67.3935932,15.2571202 67.2949314,15.2571202 L66.5296376,15.2571202 C65.6655913,15.2571202 65.5421533,15.0594237 65.5421533,14.1215626 L65.5421533,6.44351535 C65.5421533,5.40688166 65.6408856,5.23384048 66.5296376,5.23384048 L67.2949314,5.23384048 C67.3937041,5.23384048 67.4430551,5.18281551 67.4430551,5.11030157 L67.4430551,4.59213599 L67.3935932,4.54111102 L64.5545479,4.59213599 L62.7030274,4.56672434 L59.5677147,4.56672434 L57.7408999,4.59213599 L55.0005769,4.54111102 L54.9511049,4.59213599 L54.9511049,5.13503759 C54.9511049,5.20774312 55.0005769,5.2337598 55.0992487,5.2337598 L55.839867,5.2337598 C56.7285989,5.2337598 56.8273513,5.40677074 56.8273513,6.46814045 L56.82719,6.46832196 Z M43.7331351,4.6170031 L41.0422236,4.54419672 L40.9680861,4.59451581 L40.9680861,5.13752833 C40.9680861,5.21043555 41.0175481,5.23625055 41.1161896,5.23625055 L41.856818,5.23625055 C42.7455398,5.23625055 42.8443023,5.50776185 42.8443023,6.56945425 L42.8443023,14.0989644 C42.8443023,14.9630208 42.7701649,15.2346228 41.856818,15.2593286 L41.0915141,15.2593286 C41.0173766,15.2593286 40.9680861,15.3101519 40.9680861,15.3826759 L40.9680861,15.9257086 L40.9928221,15.9767336 C40.9928221,15.9767336 42.6715032,15.9257086 43.7330443,15.9257086 C44.4983684,15.9257086 45.7326986,15.9767336 45.7326986,15.9767336 L45.7574346,15.9257086 L45.7574346,15.4073312 C45.7574346,15.3087099 45.7079727,15.2593286 45.609321,15.2593286 C44.7699402,15.2593286 44.6958834,15.0616522 44.6958834,14.4446535 L44.6958834,14.3936285 L49.7814389,7.50586321 L49.7814389,14.0479495 C49.7814389,14.912016 49.6826763,15.2329186 48.7693093,15.2576244 L48.0039852,15.2576244 C47.9298477,15.2576244 47.8805572,15.3086494 47.8805572,15.3811028 L47.8805572,15.9239943 L47.8805572,15.9750193 C47.8805572,15.9750193 49.5592382,15.9239943 50.6454851,15.9239943 C51.7564378,15.9239943 53.4845304,15.9750193 53.4845304,15.9750193 L53.5092664,15.9239943 L53.5092664,15.4058287 C53.5092664,15.3070057 53.4598044,15.2576244 53.3611226,15.2576244 L52.6205043,15.2576244 C51.7564479,15.2319102 51.6083746,14.9614376 51.6083746,14.0479495 L51.6083746,6.51813685 C51.6083746,5.50600724 51.7071271,5.23434468 52.6205043,5.23434468 L53.3611226,5.23434468 C53.4598952,5.23434468 53.5092664,5.18331971 53.5092664,5.11089653 L53.5092664,4.59273094 L53.4845304,4.54160514 C53.4845304,4.54160514 51.7564378,4.59273094 50.6454851,4.59273094 C49.9295827,4.59273094 48.8433761,4.54160514 48.8433761,4.54160514 L48.7939142,4.59273094 L48.7939142,5.13562246 C48.7939142,5.20852967 48.8433761,5.23434468 48.9173522,5.23434468 C49.7567331,5.23434468 49.7814086,5.72823811 49.7814086,6.32079325 L44.6958531,13.2332643 L44.6958531,6.54274177 C44.6958531,5.5059064 44.7946258,5.23424384 45.7080836,5.23424384 L46.4486918,5.23424384 C46.5474342,5.23424384 46.5968054,5.18321887 46.5968054,5.11079569 L46.5968054,4.5926301 L46.5473233,4.54160514 L43.7329838,4.61441151 L43.7331351,4.6170031 Z M32.5913397,14.2448898 L32.5913397,10.1469598 C34.4181545,10.3690092 34.8872615,11.8256408 35.4303849,13.1588445 C35.8500804,14.1706716 36.5659425,15.9235708 37.800424,15.9482766 L39.602533,15.9734865 L39.6519949,15.9224615 L39.6519949,15.453526 C39.6519949,15.2808276 39.4791857,15.2560916 39.3804332,15.2560916 L39.1829081,15.2560916 C38.2695007,15.2560916 37.281976,13.0093797 36.9116921,12.0712665 C36.3932643,10.8615917 35.4304555,9.72613493 34.0973526,9.72613493 C35.356439,9.50380322 35.9982847,8.14587359 36.3932744,7.20806295 C36.6401405,6.64020349 36.9610935,5.97348063 37.2326553,5.97348063 C37.43014,5.97348063 37.6523407,5.99919479 37.8004542,6.07230369 C37.9732635,6.1710259 38.2695209,6.29457489 38.5163869,6.29457489 C39.0348248,6.29457489 39.4544799,5.8502745 39.4544799,5.35651216 C39.4544799,4.73918066 39.0101089,4.24545866 38.0719655,4.24545866 C36.8869964,4.24545866 36.2698565,5.60326728 35.7760438,6.71432078 C35.2329405,7.92399566 34.5663689,9.28180428 32.5914204,9.28180428 L32.5914204,6.31933108 C32.5914204,5.30710063 33.1345438,5.2328825 33.8010952,5.2328825 C33.8998679,5.2328825 33.9986103,5.16007612 33.9986103,5.03558933 L33.9986103,4.59118809 L33.9491382,4.54016313 C33.9491382,4.54016313 32.5913296,4.59118809 31.6285107,4.59118809 C30.7397486,4.59118809 29.0610272,4.54016313 29.0610272,4.54016313 L29.0115652,4.59118809 L29.0115652,5.03558933 C29.0115652,5.15882571 29.085743,5.2328825 29.2090803,5.2328825 L29.6781469,5.2328825 C30.5174874,5.2328825 30.7396881,5.62794279 30.7396881,6.31933108 L30.7396881,14.2438309 C30.7396881,14.9351789 30.5174975,15.2560614 29.6781469,15.2560614 L29.2090803,15.2560614 C29.0856523,15.2560614 29.0115652,15.3289686 29.0115652,15.4534957 L29.0115652,15.9224313 L29.0610272,15.9734865 C29.0610272,15.9734865 30.7398091,15.9224313 31.6285107,15.9224313 C32.5912893,15.9224313 33.9984489,15.9734865 33.9984489,15.9734865 L34.0479209,15.9224313 L34.0479209,15.4534957 C34.0479209,15.3301888 33.9491685,15.2560614 33.8504059,15.2560614 C33.3813594,15.2560614 32.5913195,15.2050364 32.5913195,14.2438309 L32.5913397,14.2448898 Z M17.7446881,4.6170031 L15.0537766,4.54419672 L14.9795988,4.59451581 L14.9795988,5.13752833 C14.9795988,5.21043555 15.029081,5.23625055 15.1277023,5.23625055 L15.8683206,5.23625055 C16.7570828,5.23625055 16.855805,5.50776185 16.855805,6.56945425 L16.855805,14.0989644 C16.855805,14.9630208 16.7816171,15.2346228 15.8683206,15.2593286 L15.1030268,15.2593286 C15.0288591,15.2593286 14.9795988,15.3101519 14.9795988,15.3826759 L14.9795988,15.9257086 L15.0043349,15.9767336 C15.0043349,15.9767336 16.6831167,15.9257086 17.7446579,15.9257086 C18.5099618,15.9257086 19.7443121,15.9767336 19.7443121,15.9767336 L19.7690482,15.9257086 L19.7690482,15.4073312 C19.7690482,15.3087099 19.7195862,15.2593286 19.6209144,15.2593286 C18.7815638,15.2593286 18.7074869,15.0616522 18.7074869,14.4446535 L18.7074869,14.3936285 L23.7930423,7.50586321 L23.7930423,14.0479495 C23.7930423,14.912016 23.69431,15.2329186 22.7809127,15.2576244 L22.0156088,15.2576244 C21.941421,15.2576244 21.8921809,15.3086494 21.8921809,15.3811028 L21.8921809,15.9239943 L21.8921809,15.9750193 C21.8921809,15.9750193 23.5709627,15.9239943 24.6571088,15.9239943 C25.7680614,15.9239943 27.496154,15.9750193 27.496154,15.9750193 L27.52089,15.9239943 L27.52089,15.4058287 C27.52089,15.3070057 27.4714079,15.2576244 27.3727462,15.2576244 L26.6321581,15.2576244 C25.7681018,15.2319102 25.6199277,14.9614376 25.6199277,14.0479495 L25.6199277,6.51813685 C25.6199277,5.50600724 25.7187003,5.23434468 26.6321581,5.23434468 L27.3727462,5.23434468 C27.4714987,5.23434468 27.52089,5.18331971 27.52089,5.11089653 L27.52089,4.59273094 L27.496154,4.54160514 C27.496154,4.54160514 25.7680614,4.59273094 24.6571088,4.59273094 C23.9411962,4.59273094 22.8548989,4.54160514 22.8548989,4.54160514 L22.8054168,4.59273094 L22.8054168,5.13562246 C22.8054168,5.20852967 22.8548989,5.23434468 22.928875,5.23434468 C23.7682256,5.23434468 23.7929213,5.72823811 23.7929213,6.32079325 L18.7073659,13.2332643 L18.7073659,6.54274177 C18.7073659,5.5059064 18.8061183,5.23424384 19.7195963,5.23424384 L20.4602146,5.23424384 C20.5589469,5.23424384 20.6083282,5.18321887 20.6083282,5.11079569 L20.6083282,4.5926301 L20.5588461,4.54160514 L17.7445066,4.61441151 L17.7446881,4.6170031 Z M4.19685385,1.75305043 C4.19685385,0.938405589 4.32029191,0.864399221 6.46806986,0.864399221 C7.85058425,0.864399221 9.82553277,1.30880045 9.82553277,3.82677159 C9.82553277,5.92555145 8.19616242,6.74013578 6.14709661,6.74013578 L4.19685385,6.74013578 L4.19685385,1.75310085 L4.19685385,1.75305043 Z M4.19685385,7.60418206 L6.51748139,7.60418206 C9.40593814,7.60418206 10.985897,9.15933428 10.985897,11.3813404 C10.985897,12.8870811 10.1218406,15.1335914 6.36934764,15.1335914 C4.36969336,15.1335914 4.19685385,14.9857702 4.19685385,14.1707321 L4.19685385,7.60418206 L4.19685385,7.60418206 Z M0,15.4544638 L0,15.923601 L0.0493843013,15.974626 L3.18469701,15.923601 C3.18469701,15.923601 5.06092332,15.974626 6.83842741,15.974626 C11.7511434,15.974626 13.1830693,13.7775273 13.1830693,11.654445 C13.1830693,9.35862408 12.0475117,7.67974137 9.43061668,7.08750891 C10.6897031,6.47013708 11.7265385,5.13706447 11.7265385,3.77925585 C11.7265385,2.12517974 10.8871778,0.00209746894 6.29530396,0.00209746894 C5.4312476,0.00209746894 3.18469701,0.0275091119 3.18469701,0.0275091119 L0.0493843013,0.00209746894 L0,0.0275091119 L0,0.521392461 C0,0.620215517 0.0493843013,0.694322725 0.172809256,0.694322725 L0.913427558,0.694322725 C1.95026293,0.694322725 2.19711889,0.941037509 2.19711889,1.78036794 L2.19711889,14.1241744 C2.19711889,14.9882307 1.90087157,15.2599336 0.913427558,15.2599336 L0.172809256,15.2599336 C0.0493711921,15.2599336 0,15.33274 0,15.4572571 L0,15.4544638 Z" id="ady-wordmark" fill="#000000" fill-rule="nonzero"></path>
    </g>
</svg>

<svg xmlns="http://www.w3.org/2000/svg" width="120" height="20"><path fill="#000" fill-rule="nonzero" d="M115.384.987c1.85 0 2.295 1.26 2.838 2.963l.716-.124A36.036 36.036 0 0 1 118.42 0h-6.32l-1.925.025-3.16-.025-.052.025V.52c0 .073.026.173.198.173h.74c.939 0 1.284.346 1.284 1.11v12.369c0 .691-.296 1.086-1.284 1.086h-.74c-.148 0-.198.1-.198.173v.494l.051.05 3.16-.05 1.901.025h7.259c.123-1.383.37-2.79.666-4.073l-.765-.124c-.494 1.778-1.21 3.234-3.086 3.234h-4.099c-.542 0-.888-.148-.888-.815V7.876h3.382c.84 0 1.11.37 1.235 1.086l.147.766c0 .073.073.172.198.172h.568l.073-.072c-.073-.42-.198-1.53-.198-2.37 0-.815.099-1.728.198-2.346 0-.05-.026-.098-.1-.098h-.542c-.1 0-.173.098-.173.197l-.173.74c-.148.692-.37 1.087-1.234 1.087h-3.382V1.78c0-.593.296-.79.888-.79h3.333l.002-.003ZM96.24 4.617l-2.69-.073-.074.05v.543c0 .073.051.099.149.099h.74c.889 0 .988.271.988 1.333v7.53c0 .864-.073 1.135-.988 1.16h-.765a.118.118 0 0 0-.124.123v.543l.026.051s1.678-.05 2.74-.05c.765 0 2 .05 2 .05l.025-.05v-.519c0-.099-.05-.148-.148-.148-.84 0-.913-.198-.913-.815v-.05l5.085-6.888v6.542c0 .864-.098 1.185-1.012 1.21h-.765a.118.118 0 0 0-.124.123V15.974s1.679-.05 2.765-.05c1.111 0 2.84.05 2.84.05l.025-.05v-.518c0-.1-.051-.149-.148-.149h-.74c-.865-.025-1.013-.296-1.013-1.21v-7.53c0-1.011.099-1.283 1.012-1.283h.74c.1 0 .149-.051.149-.123v-.519l-.026-.05s-1.728.05-2.839.05c-.716 0-1.802-.05-1.802-.05l-.05.05v.543c0 .073.05.099.123.099.84 0 .864.494.864 1.086l-5.086 6.913v-6.69c0-1.037.099-1.31 1.012-1.31h.741c.099 0 .148-.05.148-.123v-.518l-.05-.05-2.815.072v.003ZM83.076 14.689c0-.42.617-2.888.962-8.517 0-.1.124-.642.716-.642h2.518c.914 0 .988.346.988 1.185v7.06c0 .815-.074 1.21-.988 1.21h-3.727c-.247 0-.47-.025-.47-.296Zm.42 1.259h4.665c2.493 0 3.061 1.728 3.308 3.16h.617l-.148-3.333c0-.321-.345-.494-.518-.494H91c-.765-.025-.889-.32-.889-1.21V6.42c0-.84.223-1.185 1.136-1.185h.395c.099 0 .198-.099.198-.173v-.518c-.692 0-1.827.073-2.642.073-.988 0-2.123-.051-3.185-.051-.938 0-2.024.05-2.518.05-.395 0-1.555-.072-2.394-.072v.567c0 .073.049.124.148.124h.666c.889 0 1.012.617 1.012.938 0 2.938-.42 5.95-.888 8.048-.173.667-.593 1.062-1.26 1.062h-.394c-.198 0-.42.172-.42.493l-.148 3.333h.617c.099-.938.543-3.16 3.061-3.16ZM78.19 4.543h-4.937l-1.778.05-2.469-.05-.024.05v.544c0 .025 0 .099.148.099h.568c.716 0 .987.247.987.814v8.419c0 .494-.222.79-.987.79h-.568c-.124 0-.148.073-.148.123v.543l.024.051 2.444-.05 1.803.024h4.962c.05-.79.222-1.802.518-3.012l-.617-.072c-.395 1.259-.963 2.394-2.444 2.394h-2.444c-.42 0-.691-.098-.691-.567v-4.42h2.147c.642 0 .865.272.963.766l.124.543c0 .073.05.148.148.148h.444l.05-.073c-.05-.567-.148-1.086-.148-1.703 0-.593.098-1.26.148-1.827 0-.05 0-.073-.05-.073h-.444c-.074 0-.124.051-.124.148l-.148.519c-.123.494-.271.765-.963.765h-2.147V5.832c0-.42.222-.592.691-.592h2.42c1.555 0 2.024 1.456 2.295 2.345l.617-.073c-.172-.938-.345-1.876-.37-2.962v-.007ZM56.827 6.468v7.654c0 .864-.074 1.135-.987 1.135h-.766a.117.117 0 0 0-.123.124v.542l.025.052 2.74-.052 2.716.052.049-.052v-.518c0-.098-.05-.148-.148-.148h-.642c-.889 0-1.012-.198-1.012-1.135V6.493c0-.864.518-.963 1.012-.963h3.012c.494 0 .987.073.987.963v7.629c0 .864-.074 1.135-.987 1.135h-.667c-.098 0-.148.051-.148.124v.542l.05.052 2.617-.052 2.839.052.05-.052v-.518c0-.098-.05-.148-.15-.148h-.764c-.864 0-.988-.198-.988-1.135V6.444c0-1.037.099-1.21.988-1.21h.765c.099 0 .148-.051.148-.124v-.518l-.05-.05-2.838.05-1.852-.025h-3.135l-1.827.025-2.74-.05-.05.05v.543c0 .073.05.099.148.099h.74c.89 0 .988.173.988 1.234ZM43.733 4.617l-2.69-.073-.075.05v.544c0 .072.05.098.148.098h.74c.89 0 .988.272.988 1.333v7.53c0 .864-.074 1.136-.987 1.16h-.765a.117.117 0 0 0-.124.124v.543l.025.05s1.679-.05 2.74-.05c.765 0 2 .05 2 .05l.024-.05v-.519c0-.098-.049-.148-.148-.148-.84 0-.913-.197-.913-.814v-.051l5.085-6.888v6.542c0 .864-.098 1.185-1.012 1.21h-.765a.117.117 0 0 0-.123.123V15.975s1.678-.051 2.764-.051c1.111 0 2.84.051 2.84.051l.024-.051v-.518c0-.099-.05-.148-.148-.148h-.74c-.865-.026-1.013-.297-1.013-1.21v-7.53c0-1.012.1-1.284 1.013-1.284h.74c.099 0 .148-.05.148-.123v-.518l-.024-.051s-1.729.05-2.84.05c-.715 0-1.802-.05-1.802-.05l-.05.05v.544c0 .073.05.098.124.098.84 0 .864.494.864 1.087l-5.085 6.912v-6.69c0-1.037.099-1.309 1.012-1.309h.74c.1 0 .149-.05.149-.123v-.518l-.05-.051-2.814.072v.003Zm-11.142 9.628v-4.098c1.827.222 2.296 1.679 2.84 3.012.42 1.012 1.135 2.765 2.37 2.79l1.802.024.049-.05v-.47c0-.172-.173-.197-.272-.197h-.197c-.913 0-1.901-2.247-2.271-3.185-.519-1.21-1.482-2.345-2.815-2.345 1.26-.222 1.901-1.58 2.296-2.518.247-.568.568-1.235.84-1.235.197 0 .42.026.567.1.173.098.47.222.716.222a.954.954 0 0 0 .938-.938c0-.618-.444-1.112-1.382-1.112-1.185 0-1.802 1.358-2.296 2.47-.543 1.209-1.21 2.567-3.185 2.567V6.319c0-1.012.544-1.086 1.21-1.086A.194.194 0 0 0 34 5.036V4.59l-.05-.05s-1.358.05-2.32.05c-.89 0-2.568-.05-2.568-.05l-.05.05v.445c0 .123.075.197.198.197h.47c.838 0 1.06.395 1.06 1.086v7.925c0 .691-.222 1.012-1.06 1.012h-.47c-.123 0-.197.073-.197.197v.47l.049.05s1.679-.05 2.568-.05c.962 0 2.37.05 2.37.05l.049-.05v-.47a.195.195 0 0 0-.198-.197c-.469 0-1.259-.051-1.259-1.012ZM17.745 4.617l-2.691-.073-.074.05v.544c0 .072.05.098.148.098h.74c.89 0 .988.272.988 1.333v7.53c0 .864-.074 1.136-.988 1.16h-.765a.117.117 0 0 0-.123.124v.543l.024.05s1.68-.05 2.74-.05c.766 0 2 .05 2 .05l.025-.05v-.519c0-.098-.05-.148-.148-.148-.84 0-.914-.197-.914-.814v-.051l5.086-6.888v6.542c0 .864-.099 1.185-1.012 1.21h-.765a.117.117 0 0 0-.124.123V15.975s1.679-.051 2.765-.051c1.111 0 2.84.051 2.84.051l.024-.051v-.518c0-.099-.05-.148-.148-.148h-.74c-.865-.026-1.013-.297-1.013-1.21v-7.53c0-1.012.099-1.284 1.012-1.284h.74c.1 0 .149-.05.149-.123v-.518l-.025-.051s-1.728.05-2.839.05c-.716 0-1.802-.05-1.802-.05l-.05.05v.544c0 .073.05.098.124.098.84 0 .864.494.864 1.087l-5.086 6.912v-6.69c0-1.037.1-1.309 1.013-1.309h.74c.099 0 .148-.05.148-.123v-.518l-.05-.051-2.813.072v.003ZM4.197 1.753c0-.815.123-.889 2.271-.889 1.383 0 3.358.445 3.358 2.963 0 2.099-1.63 2.913-3.679 2.913h-1.95V1.753Zm0 5.851h2.32c2.889 0 4.469 1.555 4.469 3.777 0 1.506-.864 3.753-4.617 3.753-2 0-2.172-.148-2.172-.963V7.604ZM0 15.454v.47l.05.05 3.135-.05s1.876.05 3.653.05c4.913 0 6.345-2.196 6.345-4.32 0-2.295-1.135-3.974-3.752-4.566 1.259-.618 2.296-1.95 2.296-3.309 0-1.654-.84-3.777-5.432-3.777-.864 0-3.11.026-3.11.026L.049.002 0 .028V.52c0 .1.05.173.173.173h.74c1.037 0 1.284.247 1.284 1.086v12.344c0 .864-.296 1.136-1.284 1.136h-.74c-.124 0-.173.073-.173.197v-.003Z"/></svg>
